X:1
T:Miss Ross's Reel [4]
L:1/8
M:C|
S:Marshall - 1781 Collection
Z:AK/Fiddler's Companion
F:http://www.ibiblio.org/fiddlers/MISSKA_MISSRU.htm
K:F
A | F/F/F (fd) cfc(A | B)dcA BGGA  | F/F/F (fd) cfc(A | B)dcB AFF :|
e | f(ga)f     cfa(f | d)fcA BGGe  | (fga)f     bga(f | d)fcB AFF |]
e | (fga)f     bgaf  | cfaf b(gg)a | fcAf       dfc(A | B)dcB AFF |]
